static/img/device/component-wall-bracket-bew2.svg

<svg xmlns="http://www.w3.org/2000/svg" width="134" height="450" fill="none" viewBox="0 0 134 450"><g clip-path="url(#a)"><path fill="#fff" d="M133.98 0H0v449.99h133.98z"/><path stroke="#231815" stroke-linecap="round" stroke-linejoin="round" stroke-width=".71" d="M13.94 193.83v10.4"/><path stroke="#231815" stroke-linecap="round" stroke-linejoin="round" d="M54.33 436.05h25.32M13.94 409.26h32.31M87.73 409.26h32.31"/><path stroke="#231815" stroke-linecap="round" stroke-linejoin="round" stroke-width=".5" d="M100.65 357.29H33.33M33.33 330.36h67.32M77.76 316.89H56.22M56.22 304.77h21.54"/><path stroke="#231815" stroke-linecap="round" stroke-linejoin="round" d="M13.94 409.26V30.1"/><path stroke="#231815" stroke-linecap="round" stroke-linejoin="round" stroke-width=".5" d="M26.6 199.35v-75.81M27.94 351.9v-16.16"/><path stroke="#231815" stroke-linecap="round" stroke-linejoin="round" d="M28.75 28.75V16.63M54.33 436.05v-18.71"/><path stroke="#231815" stroke-linecap="round" stroke-linejoin="round" stroke-width=".5" d="M60.93 96.75V75.2M73.05 75.2v21.55"/><path stroke="#231815" stroke-linecap="round" stroke-linejoin="round" d="M79.65 417.34v18.71"/><path stroke="#231815" stroke-linecap="round" stroke-linejoin="round" stroke-width=".5" d="M96.61 210.12H37.37"/><path stroke="#231815" stroke-linecap="round" stroke-linejoin="round" d="M105.23 28.75V16.63"/><path stroke="#231815" stroke-linecap="round" stroke-linejoin="round" stroke-width=".5" d="M106.04 335.74v16.16M107.38 123.54v75.81"/><path stroke="#231815" stroke-linecap="round" stroke-linejoin="round" d="M120.04 409.26V30.1"/><path stroke="#231815" stroke-linecap="round" stroke-linejoin="round" stroke-width=".5" d="M37.37 112.77h59.24"/><path stroke="#231815" stroke-linecap="round" stroke-linejoin="round" d="M13.94 30.1H27.4M106.57 30.1h13.47M102.54 13.94h-71.1M54.33 417.34c0-4.46-3.62-8.08-8.08-8.08"/><path stroke="#231815" stroke-linecap="round" stroke-linejoin="round" stroke-width=".5" d="M56.22 304.77c-3.35 0-6.06 2.71-6.06 6.06s2.71 6.06 6.06 6.06M33.33 330.36c-2.97 0-5.39 2.41-5.39 5.39M27.94 351.9c0 2.97 2.41 5.39 5.39 5.39M37.37 112.77c-5.95 0-10.77 4.82-10.77 10.77M26.6 199.35c0 5.95 4.82 10.77 10.77 10.77M60.93 96.75c0 3.35 2.71 6.06 6.06 6.06s6.06-2.71 6.06-6.06M73.05 75.2c0-3.35-2.71-6.06-6.06-6.06s-6.06 2.71-6.06 6.06"/><path stroke="#231815" stroke-linecap="round" stroke-linejoin="round" d="M31.44 13.94a2.69 2.69 0 0 0-2.69 2.69M27.4 30.1c.74 0 1.35-.6 1.35-1.35M87.73 409.26c-4.46 0-8.08 3.62-8.08 8.08"/><path stroke="#231815" stroke-linecap="round" stroke-linejoin="round" stroke-width=".5" d="M77.76 316.89c3.35 0 6.06-2.71 6.06-6.06s-2.71-6.06-6.06-6.06M100.65 357.29c2.97 0 5.39-2.41 5.39-5.39M106.04 335.74c0-2.97-2.41-5.39-5.39-5.39M107.38 123.54c0-5.95-4.82-10.77-10.77-10.77M96.61 210.12c5.95 0 10.77-4.82 10.77-10.77"/><path stroke="#231815" stroke-linecap="round" stroke-linejoin="round" d="M105.23 16.63a2.69 2.69 0 0 0-2.69-2.69M105.23 28.75c0 .74.6 1.35 1.35 1.35"/></g><defs><clipPath id="a"><path fill="#fff" d="M0 0h133.98v449.99H0z"/></clipPath></defs></svg>

<svg width="134" height="450" viewBox="0 0 134 450" fill="none" xmlns="http://www.w3.org/2000/svg">
<g clip-path="url(#clip0_607_2618)">
<path d="M133.98 0H0V449.99H133.98V0Z" fill="white"/>
<path d="M13.94 193.83V204.23" stroke="#231815" stroke-width="0.71" stroke-linecap="round" stroke-linejoin="round"/>
<path d="M54.33 436.05H79.65" stroke="#231815" stroke-linecap="round" stroke-linejoin="round"/>
<path d="M13.94 409.26H46.25" stroke="#231815" stroke-linecap="round" stroke-linejoin="round"/>
<path d="M87.73 409.26H120.04" stroke="#231815" stroke-linecap="round" stroke-linejoin="round"/>
<path d="M100.65 357.29H33.33" stroke="#231815" stroke-width="0.5" stroke-linecap="round" stroke-linejoin="round"/>
<path d="M33.33 330.36H100.65" stroke="#231815" stroke-width="0.5" stroke-linecap="round" stroke-linejoin="round"/>
<path d="M77.76 316.89H56.22" stroke="#231815" stroke-width="0.5" stroke-linecap="round" stroke-linejoin="round"/>
<path d="M56.22 304.77H77.76" stroke="#231815" stroke-width="0.5" stroke-linecap="round" stroke-linejoin="round"/>
<path d="M13.94 409.26V30.1" stroke="#231815" stroke-linecap="round" stroke-linejoin="round"/>
<path d="M26.6 199.35V123.54" stroke="#231815" stroke-width="0.5" stroke-linecap="round" stroke-linejoin="round"/>
<path d="M27.94 351.9V335.74" stroke="#231815" stroke-width="0.5" stroke-linecap="round" stroke-linejoin="round"/>
<path d="M28.75 28.75V16.63" stroke="#231815" stroke-linecap="round" stroke-linejoin="round"/>
<path d="M54.33 436.05V417.34" stroke="#231815" stroke-linecap="round" stroke-linejoin="round"/>
<path d="M60.93 96.75V75.2" stroke="#231815" stroke-width="0.5" stroke-linecap="round" stroke-linejoin="round"/>
<path d="M73.05 75.2V96.75" stroke="#231815" stroke-width="0.5" stroke-linecap="round" stroke-linejoin="round"/>
<path d="M79.65 417.34V436.05" stroke="#231815" stroke-linecap="round" stroke-linejoin="round"/>
<path d="M96.61 210.12H37.37" stroke="#231815" stroke-width="0.5" stroke-linecap="round" stroke-linejoin="round"/>
<path d="M105.23 28.75V16.63" stroke="#231815" stroke-linecap="round" stroke-linejoin="round"/>
<path d="M106.04 335.74V351.9" stroke="#231815" stroke-width="0.5" stroke-linecap="round" stroke-linejoin="round"/>
<path d="M107.38 123.54V199.35" stroke="#231815" stroke-width="0.5" stroke-linecap="round" stroke-linejoin="round"/>
<path d="M120.04 409.26V30.1" stroke="#231815" stroke-linecap="round" stroke-linejoin="round"/>
<path d="M37.37 112.77H96.61" stroke="#231815" stroke-width="0.5" stroke-linecap="round" stroke-linejoin="round"/>
<path d="M13.94 30.1H27.4" stroke="#231815" stroke-linecap="round" stroke-linejoin="round"/>
<path d="M106.57 30.1H120.04" stroke="#231815" stroke-linecap="round" stroke-linejoin="round"/>
<path d="M102.54 13.94H31.44" stroke="#231815" stroke-linecap="round" stroke-linejoin="round"/>
<path d="M54.33 417.34C54.33 412.88 50.71 409.26 46.25 409.26" stroke="#231815" stroke-linecap="round" stroke-linejoin="round"/>
<path d="M56.22 304.77C52.87 304.77 50.16 307.48 50.16 310.83C50.16 314.18 52.87 316.89 56.22 316.89" stroke="#231815" stroke-width="0.5" stroke-linecap="round" stroke-linejoin="round"/>
<path d="M33.33 330.36C30.36 330.36 27.94 332.77 27.94 335.75" stroke="#231815" stroke-width="0.5" stroke-linecap="round" stroke-linejoin="round"/>
<path d="M27.94 351.9C27.94 354.87 30.35 357.29 33.33 357.29" stroke="#231815" stroke-width="0.5" stroke-linecap="round" stroke-linejoin="round"/>
<path d="M37.37 112.77C31.42 112.77 26.6 117.59 26.6 123.54" stroke="#231815" stroke-width="0.5" stroke-linecap="round" stroke-linejoin="round"/>
<path d="M26.6 199.35C26.6 205.3 31.42 210.12 37.37 210.12" stroke="#231815" stroke-width="0.5" stroke-linecap="round" stroke-linejoin="round"/>
<path d="M60.93 96.75C60.93 100.1 63.64 102.81 66.99 102.81C70.34 102.81 73.05 100.1 73.05 96.75" stroke="#231815" stroke-width="0.5" stroke-linecap="round" stroke-linejoin="round"/>
<path d="M73.05 75.2C73.05 71.85 70.34 69.14 66.99 69.14C63.64 69.14 60.93 71.85 60.93 75.2" stroke="#231815" stroke-width="0.5" stroke-linecap="round" stroke-linejoin="round"/>
<path d="M31.44 13.94C29.95 13.94 28.75 15.15 28.75 16.63" stroke="#231815" stroke-linecap="round" stroke-linejoin="round"/>
<path d="M27.4 30.1C28.14 30.1 28.75 29.5 28.75 28.75" stroke="#231815" stroke-linecap="round" stroke-linejoin="round"/>
<path d="M87.73 409.26C83.27 409.26 79.65 412.88 79.65 417.34" stroke="#231815" stroke-linecap="round" stroke-linejoin="round"/>
<path d="M77.76 316.89C81.11 316.89 83.82 314.18 83.82 310.83C83.82 307.48 81.11 304.77 77.76 304.77" stroke="#231815" stroke-width="0.5" stroke-linecap="round" stroke-linejoin="round"/>
<path d="M100.65 357.29C103.62 357.29 106.04 354.88 106.04 351.9" stroke="#231815" stroke-width="0.5" stroke-linecap="round" stroke-linejoin="round"/>
<path d="M106.04 335.74C106.04 332.77 103.63 330.35 100.65 330.35" stroke="#231815" stroke-width="0.5" stroke-linecap="round" stroke-linejoin="round"/>
<path d="M107.38 123.54C107.38 117.59 102.56 112.77 96.61 112.77" stroke="#231815" stroke-width="0.5" stroke-linecap="round" stroke-linejoin="round"/>
<path d="M96.61 210.12C102.56 210.12 107.38 205.3 107.38 199.35" stroke="#231815" stroke-width="0.5" stroke-linecap="round" stroke-linejoin="round"/>
<path d="M105.23 16.63C105.23 15.14 104.02 13.94 102.54 13.94" stroke="#231815" stroke-linecap="round" stroke-linejoin="round"/>
<path d="M105.23 28.75C105.23 29.49 105.83 30.1 106.58 30.1" stroke="#231815" stroke-linecap="round" stroke-linejoin="round"/>
</g>
<defs>
<clipPath id="clip0_607_2618">
<rect width="133.98" height="449.99" fill="white"/>
</clipPath>
</defs>
</svg>
